X:2
T:Va' de' du' (vals)
T:Vals e. Roligs Per - Leksand
R:vals
Z:2000 Brian Wilson <baab@mediaone.net>
Z:from transcription c1983 Bob Wer..ch, Susan G..fre.
Z:from LP Leksands latar
Z:Also on "Absolut Folk" Westling-Rosen-Keijser CD, Track 5
M:3/4
L:1/8
K:G
AB
|: "Am"c2 cBAB | "Am"c2 cBAc | "E"B2 E^GBG | "Am"A4 Ac
|  "Am"efedef | "Em"g2 gfed | "D"f2 fgfd |1 "E"e4 AB :|2 "E"e4 e2 |
|: "C"e2 c2 c2 | "C"c2 eceg |"D"f2 d2 fd | "D"d2 fdfa
|  "Em"gagfed | "Am" cdcBAc | "E"B2 E^GBG | "Am"A4 e2 :|

